app/img/contact/ic_tell_2.svg

<svg width="26" height="22" viewBox="0 0 26 22" fill="none" xmlns="http://www.w3.org/2000/svg">
    <path d="M13.0799 18.7872C12.1505 18.6872 11.2066 18.568 10.2635 18.4961C9.97599 18.4675 9.68637 18.5206 9.42623 18.6495C7.78587 19.5878 6.10198 20.42 4.2841 20.9295C3.97252 21.0185 3.64385 21.0233 3.32992 20.9435C2.37489 20.6638 2.04972 19.5825 2.58911 18.6741C3.05852 17.8778 3.48781 17.0562 3.94186 16.2494C4.10146 15.9644 4.05537 15.7864 3.79506 15.5619C2.46109 14.4167 1.50009 13.0084 1.14505 11.2379C0.688446 8.95621 1.3294 6.96301 2.79224 5.23551C4.57257 3.12217 6.90936 1.97693 9.5167 1.39905C12.7769 0.67736 15.98 0.921139 19.0755 2.24C20.7543 2.95468 22.2333 3.97452 23.383 5.43544C25.7095 8.38973 25.5064 12.1227 22.8973 14.8622C20.9711 16.8904 18.5634 17.9568 15.8955 18.4505C14.9763 18.6258 14.0375 18.6767 13.0799 18.7872ZM3.66534 19.6781C3.80332 19.6702 3.94054 19.6518 4.07585 19.6229C5.86813 19.116 7.51959 18.2777 9.1113 17.3008C9.24569 17.2093 9.39652 17.1462 9.55495 17.1153C9.71338 17.0845 9.87621 17.0864 10.0339 17.1211C12.1023 17.5485 14.2348 17.5276 16.2949 17.0597C18.4994 16.5546 20.494 15.6268 22.0754 13.9134C24.0657 11.7562 24.2842 8.96586 22.6498 6.55963C21.971 5.57975 21.0851 4.77033 20.0587 4.19199C16.6184 2.18914 12.9621 1.86907 9.17531 2.82665C7.16711 3.33438 5.36373 4.26741 3.94015 5.84934C2.62155 7.31377 2.00108 9.03426 2.42866 11.0371C2.78114 12.6866 3.79421 13.8941 5.05222 14.9086C5.59929 15.3471 5.67354 15.5391 5.37568 16.1758C4.84056 17.3289 4.26105 18.4627 3.66534 19.6781Z"
          fill="#5E2CE6" fill-opacity="0.8"/>
    <path d="M19.9581 4.36485L19.9581 4.36484C16.5689 2.39173 12.9675 2.07402 9.22434 3.02055L9.22433 3.02055C7.24582 3.52077 5.48042 4.43672 4.08882 5.98313L4.08878 5.98317C2.80518 7.40873 2.21234 9.06585 2.62425 10.9953C2.96338 12.5823 3.93835 13.7533 5.17742 14.7527C5.44571 14.9677 5.65472 15.162 5.72376 15.4153C5.79439 15.6744 5.70575 15.9422 5.55697 16.2602C5.55692 16.2603 5.55688 16.2604 5.55683 16.2605L5.37568 16.1758L19.9581 4.36485ZM19.9581 4.36485L19.9605 4.36624M19.9581 4.36485L19.9605 4.36624M19.9605 4.36624C20.96 4.92938 21.8231 5.71774 22.4848 6.67269C24.0658 9.0008 23.8564 11.6881 21.9285 13.7777C20.3819 15.4533 18.4281 16.3657 16.2506 16.8647C14.2188 17.3261 12.1156 17.3468 10.0756 16.9255C9.89159 16.8852 9.70156 16.883 9.5167 16.919C9.33305 16.9548 9.1584 17.0275 9.00279 17.1328C7.42264 18.1023 5.79192 18.9289 4.02782 19.4286M19.9605 4.36624L4.02782 19.4286M4.02782 19.4286C4.02155 19.4299 4.01528 19.4312 4.009 19.4325C4.13745 19.1721 4.26522 18.9147 4.39193 18.6594L4.02782 19.4286ZM13.0585 18.986L13.0807 18.9884L13.1028 18.9859C13.3951 18.9521 13.6894 18.9238 13.9839 18.8953C14.6375 18.8323 15.2928 18.769 15.9326 18.647C18.6308 18.1476 21.0803 17.0658 23.0424 14.9999C25.7185 12.1898 25.9293 8.34559 23.5401 5.31176C22.3659 3.81953 20.8573 2.78116 19.1539 2.05598C16.018 0.71996 12.7723 0.473545 9.47347 1.20378L9.47342 1.20379C6.83548 1.78845 4.45514 2.95124 2.63945 5.10646C1.14242 6.87443 0.478895 8.9283 0.948939 11.2772L0.948955 11.2772C1.31448 13.1 2.30419 14.5456 3.6647 15.7136C3.784 15.8165 3.82075 15.8818 3.83071 15.9265C3.83951 15.966 3.83603 16.029 3.76744 16.1516C3.59303 16.4614 3.4238 16.7707 3.25525 17.0786C2.98042 17.5808 2.70743 18.0795 2.41688 18.5724C1.82643 19.5674 2.16628 20.8111 3.2737 21.1354L3.27367 21.1356L3.28063 21.1373C3.62865 21.2258 3.99307 21.2205 4.33846 21.1219C6.17711 20.6066 7.87557 19.7666 9.52018 18.8262C9.74554 18.7156 9.99562 18.6704 10.2437 18.6951L10.2437 18.6951L10.2483 18.6955C10.9309 18.7475 11.6125 18.8244 12.2928 18.901C12.5482 18.9298 12.8035 18.9586 13.0585 18.986Z"
          stroke="#5E2CE6" stroke-opacity="0.8" stroke-width="0.4"/>
</svg>

<svg width="26" height="22" fill="none" xmlns="http://www.w3.org/2000/svg"><path d="M13.08 18.787c-.93-.1-1.873-.219-2.816-.29a1.54 1.54 0 0 0-.838.152c-1.64.939-3.324 1.771-5.142 2.28a1.83 1.83 0 0 1-.954.015c-.955-.28-1.28-1.361-.74-2.27.469-.796.898-1.618 1.352-2.425.16-.285.113-.463-.147-.687-1.334-1.145-2.295-2.554-2.65-4.324-.457-2.282.184-4.275 1.647-6.002 1.78-2.114 4.117-3.26 6.725-3.837 3.26-.722 6.463-.478 9.559.841 1.678.715 3.157 1.735 4.307 3.195 2.326 2.955 2.123 6.688-.486 9.427-1.926 2.028-4.334 3.095-7.001 3.589-.92.175-1.859.226-2.816.336Zm-9.415.891c.138-.008.276-.026.41-.055 1.793-.507 3.445-1.345 5.036-2.322a1.195 1.195 0 0 1 .923-.18c2.068.428 4.2.407 6.26-.061 2.205-.505 4.2-1.433 5.781-3.147 1.99-2.157 2.21-4.947.575-7.353a7.834 7.834 0 0 0-2.591-2.368c-3.44-2.003-7.097-2.323-10.884-1.365-2.008.507-3.811 1.44-5.235 3.022-1.318 1.465-1.939 3.185-1.511 5.188.352 1.65 1.365 2.857 2.623 3.872.547.438.622.63.324 1.267-.535 1.153-1.115 2.287-1.71 3.502Z" fill="#5E2CE6" fill-opacity=".8"/><path d="M19.958 4.365c-3.39-1.973-6.99-2.291-10.734-1.344-1.978.5-3.744 1.416-5.135 2.962-1.284 1.426-1.877 3.083-1.465 5.012.34 1.587 1.314 2.758 2.553 3.758.269.215.478.409.547.662.07.26-.018.527-.167.845l-.181-.084L19.958 4.365Zm0 0 .003.001m-.003-.001.003.001m0 0a7.634 7.634 0 0 1 2.524 2.307c1.58 2.328 1.371 5.015-.556 7.105-1.547 1.675-3.5 2.588-5.678 3.087a14.566 14.566 0 0 1-6.175.06 1.38 1.38 0 0 0-1.073.208c-1.58.97-3.211 1.796-4.975 2.296M19.96 4.366 4.027 19.43m0 0a.065.065 0 0 0-.019.004l.383-.774-.364.77Zm9.03-.443.023.002.022-.002c.292-.034.586-.062.88-.09.654-.064 1.31-.127 1.95-.249 2.698-.5 5.147-1.581 7.11-3.647 2.675-2.81 2.886-6.654.497-9.688-1.174-1.492-2.683-2.53-4.386-3.256C16.018.72 12.772.474 9.474 1.204c-2.639.584-5.019 1.747-6.835 3.902C1.142 6.874.48 8.928.95 11.277c.365 1.823 1.355 3.269 2.716 4.437.119.102.156.168.166.213.009.039.005.102-.064.225-.174.31-.343.619-.512.927-.275.502-.548 1-.838 1.493-.59.995-.25 2.24.857 2.563l.007.002c.348.089.712.084 1.057-.015 1.84-.515 3.538-1.355 5.182-2.296a1.34 1.34 0 0 1 .724-.13h.004c.683.051 1.365.128 2.045.205.255.029.51.058.766.085Z" stroke="#5E2CE6" stroke-opacity=".8" stroke-width=".4"/></svg>
